static/img/kroki/e132eb3237762d9bc0a619f94c0fcecd.svg

<?xml version="1.0" encoding="us-ascii" standalone="no"?><svg xmlns="http://www.w3.org/2000/svg" xmlns:xlink="http://www.w3.org/1999/xlink" contentStyleType="text/css" height="374px" preserveAspectRatio="none" style="width:505px;height:374px;" version="1.1" viewBox="0 0 505 374" width="505px" zoomAndPan="magnify"><defs/><g><!--class azure_network_virtual_network_gateway_connection--><g id="elem_azure_network_virtual_network_gateway_connection"><rect codeLine="23" fill="#3D176E" height="39.7891" id="azure_network_virtual_network_gateway_connection" rx="2.5" ry="2.5" style="stroke:#000D19;stroke-width:0.5;" width="491" x="7" y="328.58"/><ellipse cx="22" cy="348.4745" fill="#ADD1B2" rx="11" ry="11" style="stroke:#181818;stroke-width:1.0;"/><path d="M24.9688,354.1152 Q24.3906,354.412 23.75,354.5527 Q23.1094,354.7089 22.4063,354.7089 Q19.9063,354.7089 18.5781,353.0683 Q17.2656,351.412 17.2656,348.287 Q17.2656,345.162 18.5781,343.5058 Q19.9063,341.8495 22.4063,341.8495 Q23.1094,341.8495 23.75,342.0058 Q24.4063,342.162 24.9688,342.4589 L24.9688,345.1777 Q24.3438,344.5995 23.75,344.3339 Q23.1563,344.0527 22.5313,344.0527 Q21.1875,344.0527 20.5,345.1308 Q19.8125,346.1933 19.8125,348.287 Q19.8125,350.3808 20.5,351.4589 Q21.1875,352.5214 22.5313,352.5214 Q23.1563,352.5214 23.75,352.2558 Q24.3438,351.9745 24.9688,351.3964 L24.9688,354.1152 Z " fill="#000000"/><text fill="#D9B8FF" font-family="Helvetica" font-size="17" lengthAdjust="spacing" textLength="449" x="41" y="354.3598">azure_network_virtual_network_gateway_connection</text></g><!--class microsoft_resource--><g id="elem_microsoft_resource"><rect codeLine="26" fill="#3D176E" height="39.7891" id="microsoft_resource" rx="2.5" ry="2.5" style="stroke:#000D19;stroke-width:0.5;" width="200" x="61.5" y="167.79"/><ellipse cx="76.5" cy="187.6845" fill="#ADD1B2" rx="11" ry="11" style="stroke:#181818;stroke-width:1.0;"/><path d="M79.4688,193.3252 Q78.8906,193.622 78.25,193.7627 Q77.6094,193.9189 76.9063,193.9189 Q74.4063,193.9189 73.0781,192.2783 Q71.7656,190.622 71.7656,187.497 Q71.7656,184.372 73.0781,182.7158 Q74.4063,181.0595 76.9063,181.0595 Q77.6094,181.0595 78.25,181.2158 Q78.9063,181.372 79.4688,181.6689 L79.4688,184.3877 Q78.8438,183.8095 78.25,183.5439 Q77.6563,183.2627 77.0313,183.2627 Q75.6875,183.2627 75,184.3408 Q74.3125,185.4033 74.3125,187.497 Q74.3125,189.5908 75,190.6689 Q75.6875,191.7314 77.0313,191.7314 Q77.6563,191.7314 78.25,191.4658 Q78.8438,191.1845 79.4688,190.6064 L79.4688,193.3252 Z " fill="#000000"/><text fill="#D9B8FF" font-family="Helvetica" font-size="17" lengthAdjust="spacing" textLength="158" x="95.5" y="193.5698">microsoft_resource</text></g><!--class resource--><g id="elem_resource"><rect codeLine="29" fill="#3D176E" height="39.7891" id="resource" rx="2.5" ry="2.5" style="stroke:#000D19;stroke-width:0.5;" width="113" x="196" y="7"/><ellipse cx="211" cy="26.8945" fill="#ADD1B2" rx="11" ry="11" style="stroke:#181818;stroke-width:1.0;"/><path d="M213.9688,32.5352 Q213.3906,32.832 212.75,32.9727 Q212.1094,33.1289 211.4063,33.1289 Q208.9063,33.1289 207.5781,31.4883 Q206.2656,29.832 206.2656,26.707 Q206.2656,23.582 207.5781,21.9258 Q208.9063,20.2695 211.4063,20.2695 Q212.1094,20.2695 212.75,20.4258 Q213.4063,20.582 213.9688,20.8789 L213.9688,23.5977 Q213.3438,23.0195 212.75,22.7539 Q212.1563,22.4727 211.5313,22.4727 Q210.1875,22.4727 209.5,23.5508 Q208.8125,24.6133 208.8125,26.707 Q208.8125,28.8008 209.5,29.8789 Q210.1875,30.9414 211.5313,30.9414 Q212.1563,30.9414 212.75,30.6758 Q213.3438,30.3945 213.9688,29.8164 L213.9688,32.5352 Z " fill="#000000"/><text fill="#D9B8FF" font-family="Helvetica" font-size="17" lengthAdjust="spacing" textLength="71" x="230" y="32.7798">resource</text></g><!--class tunnel--><g id="elem_tunnel"><rect codeLine="32" fill="#3D176E" height="39.7891" id="tunnel" rx="2.5" ry="2.5" style="stroke:#000D19;stroke-width:0.5;" width="97" x="297" y="167.79"/><ellipse cx="312" cy="187.6845" fill="#ADD1B2" rx="11" ry="11" style="stroke:#181818;stroke-width:1.0;"/><path d="M314.9688,193.3252 Q314.3906,193.622 313.75,193.7627 Q313.1094,193.9189 312.4063,193.9189 Q309.9063,193.9189 308.5781,192.2783 Q307.2656,190.622 307.2656,187.497 Q307.2656,184.372 308.5781,182.7158 Q309.9063,181.0595 312.4063,181.0595 Q313.1094,181.0595 313.75,181.2158 Q314.4063,181.372 314.9688,181.6689 L314.9688,184.3877 Q314.3438,183.8095 313.75,183.5439 Q313.1563,183.2627 312.5313,183.2627 Q311.1875,183.2627 310.5,184.3408 Q309.8125,185.4033 309.8125,187.497 Q309.8125,189.5908 310.5,190.6689 Q311.1875,191.7314 312.5313,191.7314 Q313.1563,191.7314 313.75,191.4658 Q314.3438,191.1845 314.9688,190.6064 L314.9688,193.3252 Z " fill="#000000"/><text fill="#D9B8FF" font-family="Helvetica" font-size="17" lengthAdjust="spacing" textLength="55" x="331" y="193.5698">tunnel</text></g><!--reverse link microsoft_resource to azure_network_virtual_network_gateway_connection--><g id="link_microsoft_resource_azure_network_virtual_network_gateway_connection"><path codeLine="35" d="M181.4298,223.4573 C198.9198,253.9773 223.97,297.69 241.48,328.25 " fill="none" id="microsoft_resource-backto-azure_network_virtual_network_gateway_connection" style="stroke:#FFAF37;stroke-width:2.0;"/><polygon fill="none" points="172.48,207.84,176.224,226.4406,186.6356,220.4741,172.48,207.84" style="stroke:#FFAF37;stroke-width:2.0;"/></g><!--reverse link tunnel to azure_network_virtual_network_gateway_connection--><g id="link_tunnel_azure_network_virtual_network_gateway_connection"><path codeLine="36" d="M325.185,223.3732 C307.315,253.8932 281.66,297.69 263.76,328.25 " fill="none" id="tunnel-backto-azure_network_virtual_network_gateway_connection" style="stroke:#FFAF37;stroke-width:2.0;"/><polygon fill="none" points="334.28,207.84,320.0073,220.3416,330.3628,226.4049,334.28,207.84" style="stroke:#FFAF37;stroke-width:2.0;"/></g><!--reverse link resource to microsoft_resource--><g id="link_resource_microsoft_resource"><path codeLine="37" d="M232.5702,62.6673 C215.0802,93.1873 190.03,136.9 172.52,167.46 " fill="none" id="resource-backto-microsoft_resource" style="stroke:#FFAF37;stroke-width:2.0;"/><polygon fill="none" points="241.52,47.05,227.3644,59.6841,237.776,65.6506,241.52,47.05" style="stroke:#FFAF37;stroke-width:2.0;"/></g><!--reverse link resource to tunnel--><g id="link_resource_tunnel"><path codeLine="38" d="M272.815,62.5832 C290.685,93.1032 316.34,136.9 334.24,167.46 " fill="none" id="resource-backto-tunnel" style="stroke:#FFAF37;stroke-width:2.0;"/><polygon fill="none" points="263.72,47.05,267.6372,65.6149,277.9927,59.5516,263.72,47.05" style="stroke:#FFAF37;stroke-width:2.0;"/></g><!--SRC=[dP1FJm8n4CNl-ocQS2O1YGA95oGnUY56l9EXdKApknqodMK3wdSNN2Hrbp_HOz_xpRmtNJg32lELR5IE-Hmv925rVWKCkHenKpccZ5Yrh0NRwzVDH_9o5PX0Zke9ipMAqr0dtfPEfnv3K3UHzG0wNJ0LtbJhXS67dOLU8cgSGGWZ4NRpGZ0gOuRpWRLrihwqrJFT_XqsC6A3V40wdOxf3kl8rQYBTn-9gTkYwiQVDY71Hir6n3TriUMUY4es3ltnptPy0MESNwZRI7kjEh57_gLFbs2etDCMiX371456aiqAnushS3WmjdyIVZu79th_TGgs1UFCevJ4wMpjM0h8Zky529QmcMdo7hKuykezIJuFixdJJ86ip1W35QmnTazfKkpsP9LoOlh-ezrk_xbISjZwp-bQUhDMdQZYaYy0]--></g></svg>

<svg xmlns="http://www.w3.org/2000/svg" width="505" height="374" viewBox="0 0 505 374"><rect width="491" height="39.789" x="7" y="328.58" fill="#3D176E" rx="2.5" ry="2.5" style="stroke:#000d19;stroke-width:.5"/><circle cx="22" cy="348.474" r="11" fill="#ADD1B2" style="stroke:#181818;stroke-width:1"/><path d="M24.969 354.115q-.578.297-1.219.438-.64.156-1.344.156-2.5 0-3.828-1.64-1.312-1.657-1.312-4.782t1.312-4.781q1.328-1.656 3.828-1.656.703 0 1.344.156.656.156 1.219.453v2.719q-.625-.579-1.219-.844-.594-.281-1.219-.281-1.343 0-2.031 1.078-.687 1.062-.687 3.156t.687 3.172q.688 1.062 2.031 1.062.625 0 1.219-.265.594-.281 1.219-.86z"/><text x="41" y="354.36" fill="#D9B8FF" font-family="Helvetica" font-size="17" textLength="449">azure_network_virtual_network_gateway_connection</text><rect width="200" height="39.789" x="61.5" y="167.79" fill="#3D176E" rx="2.5" ry="2.5" style="stroke:#000d19;stroke-width:.5"/><circle cx="76.5" cy="187.685" r="11" fill="#ADD1B2" style="stroke:#181818;stroke-width:1"/><path d="M79.469 193.325q-.578.297-1.219.438-.64.156-1.344.156-2.5 0-3.828-1.64-1.312-1.657-1.312-4.782t1.312-4.781q1.328-1.656 3.828-1.656.703 0 1.344.156.656.156 1.219.453v2.719q-.625-.578-1.219-.844-.594-.281-1.219-.281-1.344 0-2.031 1.078-.687 1.062-.687 3.156t.687 3.172q.688 1.062 2.031 1.062.625 0 1.219-.265.594-.281 1.219-.86z"/><text x="95.5" y="193.57" fill="#D9B8FF" font-family="Helvetica" font-size="17" textLength="158">microsoft_resource</text><rect width="113" height="39.789" x="196" y="7" fill="#3D176E" rx="2.5" ry="2.5" style="stroke:#000d19;stroke-width:.5"/><circle cx="211" cy="26.895" r="11" fill="#ADD1B2" style="stroke:#181818;stroke-width:1"/><path d="M213.969 32.535q-.578.297-1.219.438-.64.156-1.344.156-2.5 0-3.828-1.64-1.312-1.657-1.312-4.782t1.312-4.781q1.328-1.656 3.828-1.656.703 0 1.344.156.656.156 1.219.453v2.719q-.625-.578-1.219-.844-.594-.281-1.219-.281-1.344 0-2.031 1.078-.687 1.062-.687 3.156t.687 3.172q.688 1.062 2.031 1.062.625 0 1.219-.265.594-.281 1.219-.86z"/><text x="230" y="32.78" fill="#D9B8FF" font-family="Helvetica" font-size="17" textLength="71">resource</text><rect width="97" height="39.789" x="297" y="167.79" fill="#3D176E" rx="2.5" ry="2.5" style="stroke:#000d19;stroke-width:.5"/><circle cx="312" cy="187.685" r="11" fill="#ADD1B2" style="stroke:#181818;stroke-width:1"/><path d="M314.969 193.325q-.578.297-1.219.438-.64.156-1.344.156-2.5 0-3.828-1.64-1.312-1.657-1.312-4.782t1.312-4.781q1.328-1.656 3.828-1.656.703 0 1.344.156.656.156 1.219.453v2.719q-.625-.578-1.219-.844-.594-.281-1.219-.281-1.344 0-2.031 1.078-.687 1.062-.687 3.156t.687 3.172q.688 1.062 2.031 1.062.625 0 1.219-.265.594-.281 1.219-.86z"/><text x="331" y="193.57" fill="#D9B8FF" font-family="Helvetica" font-size="17" textLength="55">tunnel</text><path fill="none" d="M181.43 223.457c17.49 30.52 42.54 74.233 60.05 104.793m-69-120.41 3.744 18.6 10.412-5.966z" style="stroke:#ffaf37;stroke-width:2"/><g fill="none"><path d="M325.185 223.373c-17.87 30.52-43.525 74.317-61.425 104.877" style="stroke:#ffaf37;stroke-width:2"/><path d="m334.28 207.84-14.273 12.502 10.356 6.063z" style="stroke:#ffaf37;stroke-width:2"/></g><g fill="none"><path d="M232.57 62.667c-17.49 30.52-42.54 74.233-60.05 104.793" style="stroke:#ffaf37;stroke-width:2"/><path d="m241.52 47.05-14.156 12.634 10.412 5.967z" style="stroke:#ffaf37;stroke-width:2"/></g><g fill="none"><path d="M272.815 62.583c17.87 30.52 43.525 74.317 61.425 104.877" style="stroke:#ffaf37;stroke-width:2"/><path d="m263.72 47.05 3.917 18.565 10.356-6.063z" style="stroke:#ffaf37;stroke-width:2"/></g></svg>
